X: 1
T: Humours Of Spennymoor, The
M: 6/8
L: 1/8
R: jig
K: Gmaj
G,B,D GBd|gdB dBG|FG^G A2B|cde ~c2A|
GBd gdB|Ffe dcA|GBd FBd|1 cAF G3:|2 cAF G2D||
|:E^DE FEF|GAB AFD|GFG ABc|dgd cAF|
GBd gdB|Ffe dcA|GBd FBd|1 cAF G2D:|2 cAF G3||
